!!!COM: Ockeghem, Johannes
!!!CDT: ~1425-1497/02/06
!!!OTL: Ma maistresse
!!!AGN: Song; Chanson
!!!SCT: Ock3012
!!!SCA: Ock3012
!!!voices: 3
**kern	**text	**text	**kern	**text	**text	**kern	**text	**text
*staff3	*	*	*staff2	*staff2	*staff2	*staff1	*staff1	*staff1
*Ivox	*	*	*Ivox	*	*	*Ivox	*	*
*I"Contra	*	*	*I"Tenor	*	*	*I"Discantus	*	*
*I'C	*	*	*I'T	*	*	*I'D	*	*
*>[A,B]	*	*	*>[A,B]	*>[A,B]	*>[A,B]	*>[A,B]	*>[A,B]	*>[A,B]
*>A	*	*	*>A	*>A	*>A	*>A	*>A	*>A
*clefGv2	*	*	*clefGv2	*	*	*clefG2	*	*
*k[b-]	*	*	*k[b-]	*	*	*k[b-]	*	*
*M3/1	*	*	*M3/1	*	*	*M3/1	*	*
*met(O)	*	*	*met(O)	*	*	*met(O)	*	*
=1-	=	=	=1-	=1-	=1-	=1-	=1-	=1-
!	!	!	!	!	!	!LO:TX:Z=12:t=Virelai	!	!
1.F	Ma	In-	0.f	Ma	In-	0cc	Ma	In-
2G/	.	.	.	.	.	.	.	.
1A	mais-	-ces-	.	.	.	1a	mais-	-ces-
=2	=	=	=2	=2	=2	=2	=2	=2
1.B-	-tres-	-sam-	1d	mais-	-ces-	1.dd	-tres-	-sam-
.	.	.	1.g	-tres-	-sam-	.	.	.
2G/	.	.	.	.	.	2b-\	.	.
1G	-se	-ment	.	.	.	2.b-\	-se	-ment
.	.	.	2e\	.	.	.	.	.
.	.	.	.	.	.	4g/	.	.
=3	=	=	=3	=3	=3	=3	=3	=3
1A	et	mon	2.e\	-se	-ment	1cc	et	mon
.	.	.	4c\	et	mon	.	.	.
1F	ma	do-	1f	ma	do-	2dd\	ma	do-
.	.	.	.	.	.	1ff	plus	-lent
1c	plus	-lent	1g	plus	-lent	.	.	.
.	.	.	.	.	.	2ee\	.	.
=4	=	=	=4	=4	=4	=4	=4	=4
0F	qu'aul-	cueur	1f	qu'au-	cueur	2dd\	qu'au-	cueur
.	.	.	.	.	.	1cc	.	.
.	.	.	2c\	-tre a-	.	.	.	.
.	.	.	1f	.	lar-	2a/	-tre a-	lar-
1G	-tre a-	lar-	.	.	.	1g	.	.
.	.	.	2e\	.	.	.	.	.
=5	=	=	=5	=5	=5	=5	=5	=5
2.B-\	-my-	-my-	2d\	-my-	-my-	1.f	-my-	-my-
.	.	.	2B-\	.	.	.	.	.
4A/	.	.	.	.	.	.	.	.
2F/	.	.	1A	.	.	.	.	.
2c\	.	.	.	.	.	2e/	.	.
2d\	.	.	2B-\	.	.	2d/	.	.
2e\	.	.	2A/	.	.	2c/	.	.
=6	=	=	=6	=6	=6	=6	=6	=6
2f\	.	.	2F/	.	.	2.a/	.	.
1e	.	.	1c	.	.	.	.	.
.	.	.	.	.	.	8g/L	.	.
.	.	.	.	.	.	8a/J	.	.
.	.	.	.	.	.	4g/	.	.
.	.	.	.	.	.	4f/	.	.
1c	.	.	2F/	.	.	1f	.	.
.	.	.	1G	.	.	.	.	.
2B-\	.	.	.	.	.	2e/	.	.
=7	=	=	=7	=7	=7	=7	=7	=7
1.c	-e,	-e	0F	-e,	-e	1f	-e,	-e
.	.	.	.	.	.	1r	.	.
2.A/	De	Doub-	.	.	.	.	.	.
.	.	.	2r	.	.	1f	De	Doub-
4F/	.	.	.	.	.	.	.	.
2c\	.	.	2A/	De	Doub-	.	.	.
=8	=	=	=8	=8	=8	=8	=8	=8
2B-\	mon	-tant	2G/	mon	-tant	2e/	mon	-tant
2A/	.	.	1c	.	.	2c/	.	.
1G	de-	qu'en	.	.	.	1d	de-	qu'en
.	.	.	2Bni\	de-	qu'en	.	.	.
1g	-sir	vous	2c\	-sir	vous	2c/	-sir	vous
.	.	.	[2G/	.	.	2e/	.	.
=9	=	=	=9	=9	=9	=9	=9	=9
2r	.	.	4G/]	.	.	2d/	.	.
.	.	.	4A/	.	.	.	.	.
2d\	la	pi-	4B-\	.	.	1g	.	.
.	.	.	4c\	.	.	.	.	.
2.c\	mor-	-ti&eacute;	1A	la	pi-	.	.	.
.	.	.	.	.	.	2f/	la	pi-
4d\	.	.	.	.	.	.	.	.
1e	.	.	2G/	mor-	-ti&eacute;	2g/	mor-	-ti&eacute;
.	.	.	2c\	.	.	2a/	.	.
=10	=	=	=10	=10	=10	=10	=10	=10
2d\	-tel-	soit	2B-\	-tel-	soit	2g/	.	.
2c\	.	.	2c\	.	.	1cc	-tel-	soit
2.f\	-le	en-	1d	-le e-	en-	.	.	.
.	.	.	.	.	.	2b-\	-le e-	en-
4g\	.	.	.	.	.	.	.	.
1a	.	.	2c\	.	.	2cc\	.	.
.	.	.	2f\	.	.	2dd\	.	.
=11	=	=	=11	=11	=11	=11	=11	=11
2r	.	.	2e\	-ne-	-dor-	2cc\	-ne-	-dor-
2a\	e-	-dor-	2f\	.	.	1ff	-my-	-my-
2g\	.	.	1g	-my-	-my-	.	.	.
2b-\	-ne-	.	.	.	.	2ee\	.	.
2a\	-my-	-my-	2f\	.	.	1ff	-e,	-e.
2f\	.	.	2a\	.	.	.	.	.
=12	=	=	=12	=12	=12	=12	=12	=12
2g\	-e,	-e.	2g\	.	.	1r	.	.
2e\	.	.	1cc	.	.	.	.	.
1d	Par-	Que	.	.	.	1ff	Par-	Que
.	.	.	2bni\	.	.	.	.	.
1c	-faic-	ja-	2.cc\	-e,	-e.	2ee\	-faic-	ja
.	.	.	.	.	.	[2gg\	.	.
.	.	.	4b-i\	.	.	.	.	.
=13	=	=	=13	=13	=13	=13	=13	=13
1c	-te en	ne	2g\	.	.	2gg\]	.	.
.	.	.	2a\	Par-	Que	2cc\	-te en	ne
1G	biens	soit,	1.g	-faic-	ja	2dd\	biens	soit,
.	.	.	.	.	.	1ee	.	.
2r	.	.	.	.	.	.	.	.
2c\	s'on-	ma	2e\	-te en	ne	2ee\	s'on-	ma
=14	=	=	=14	=14	=14	=14	=14	=14
2A/	-ques	tant	2c\	biens	soit,	1ee	-ques	tant
2G/	.	.	2g\	.	.	.	.	.
2c\	.	.	2r	.	.	1ee	maiz	a-
2r	.	.	2.c\	s'on-	ma	.	.	.
2g\	mais	a-	.	.	.	1ee	le	-m&eacute;-
.	.	.	4B-\	.	.	.	.	.
2a\	le	m&eacute;	2A/	.	.	.	.	.
=15	=	=	=15	=15	=15	=15	=15	=15
1b-	fut	fut	2G/	-ques	tant	2.gg\	fut	.
.	.	.	2.B-\	maiz	a-	.	.	.
.	.	.	.	.	.	4ff\	.	.
1g	.	.	.	.	.	1dd	.	.
.	.	.	4A/	.	.	.	.	.
.	.	.	2B-\	.	.	.	.	.
2a\	.	.	2A/	.	-m&eacute;-	[1ee	.	-e
2b-\	.	.	2G/	le	.	.	.	.
=16	=	=	=16	=16	=16	=16	=16	=16
1.cc	fem-	da-	2.A/	fut	.	1ee]	.	.
.	.	.	4G/	.	.	.	.	.
.	.	.	2A/	fem-	-e	1ff	fem-	da-
2b-\	.	.	2B-\	.	.	.	.	.
1g	.	.	2c\	.	da-	[1ee	.	.
.	.	.	2G/	.	.	.	.	.
=17	=	=	=17	=17	=17	=17	=17	=17
1a	.	.	2.c\	.	.	2ee\]	.	.
.	.	.	.	.	.	2cc\	.	.
.	.	.	4A/	.	.	.	.	.
2g\	.	.	2B-\	.	.	2dd\	.	.
1g	.	.	2c\	.	.	1cc	.	.
.	.	.	1d	.	.	.	.	.
2f\	.	.	.	.	.	2bni\	.	.
=18	=	=	=18	=18	=18	=18	=18	=18
0g	-me,	-me;	0.c	-me,	-me;	1cc	-me,	-me;
.	.	.	.	.	.	1r	.	.
1e	Cel-	Maiz	.	.	.	2a/	Cel-	Maiz
.	.	.	.	.	.	2b-\	.	.
=19	=	=	=19	=19	=19	=19	=19	=19
2.f\	-le	s'ain-	1r	.	.	2dd\	-le	s'ain-
.	.	.	.	.	.	1cc	.	.
4e\	.	.	.	.	.	.	.	.
1c	.	.	2r	.	.	.	.	.
.	.	.	2c\	Cel-	Maiz	2a/	.	.
[1B-	seu-	-sy	2d\	-le	s'ain-	2b-\	seu-	-sy
.	.	.	2e\	seu-	-sy	2g/	.	.
=20	=	=	=20	=20	=20	=20	=20	=20
2B-\]	.	.	1.f	-le	est,	1f	-le	est,
2A/	.	.	.	.	.	.	.	.
2F/	-le	est,	.	.	.	1r	.	.
2B-\	de	si	2d\	de	si	.	.	.
2c\	.	.	2e\	.	.	1cc	de	si
2A/	.	.	2c\	.	.	.	.	.
=21	=	=	=21	=21	=21	=21	=21	=21
0B-	qui	mal-	1B-	qui	.	1.dd	qui	mal-
.	.	.	2r	.	.	.	.	.
.	.	.	2B-\	court	mal-	2cc\	.	.
1G	.	-heu-	2d\	.	.	2.b-\	.	-heu-
.	.	.	2e\	.	.	.	.	.
.	.	.	.	.	.	4a/	.	.
=22	=	=	=22	=22	=22	=22	=22	=22
0F	court	-reux	1f	.	-heu-	1a	court	-reux
.	.	.	1.a	bruit	-reux	1r	.	.
1A	bruit	me	.	.	.	1cc	bruit	me
.	.	.	2d\	.	.	.	.	.
=23	=	=	=23	=23	=23	=23	=23	=23
0.B-	et	cla-	1d	et	me	1.dd	et	cla-
.	.	.	2r	.	.	.	.	.
.	.	.	2d\	fa-	cla-	1ff	fa-	.
.	.	.	2f\	.	.	.	.	.
.	.	.	2g\	.	.	4ee\	.	.
.	.	.	.	.	.	4dd\	.	.
=24	=	=	=24	=24	=24	=24	=24	=24
0A	fe-	.	1.a	.	.	1.cc	.	.
.	.	.	2f\	.	.	2dd\	.	.
1G	.	.	2g\	.	.	2ee\	.	.
.	.	.	2e\	.	.	4dd\	.	.
.	.	.	.	.	.	4ee\	.	.
=25	=	=	=25	=25	=25	=25	=25	=25
2B-\	.	.	2d\	.	.	1ff	.	.
2A/	.	.	2.a\	.	.	.	.	.
2c\	.	.	.	.	.	2ee\	.	.
.	.	.	4g\	.	.	.	.	.
2d\	.	.	2f\	.	.	1dd	.	.
1A	.	.	1e	.	.	.	.	.
.	.	.	.	.	.	2cc#i\	.	.
=26	=	=	=26	=26	=26	=26	=26	=26
1a	-me,	-me,	1.d	-me	-me,	0dd	-me	-me,
1d	.	.	.	.	.	.	.	.
.	.	.	4c\	.	.	.	.	.
.	.	.	4B-\	.	.	.	.	.
1e	D'es-	Que	2.A/	D'es-	Que	1cc	D'es-	Que
.	.	.	4G/	.	.	.	.	.
=27	=	=	=27	=27	=27	=27	=27	=27
1.f	-tre	plus	1.d	-tre	plus	1b-	-tre	plus
.	.	.	.	.	.	2a/	.	.
2e\	sans	ne	2c\	sans	ne	1a	sans	ne
2c\	.	.	2A/	.	.	.	.	.
2d\	.	.	2B-\	.	.	2g/	.	.
=28	=	=	=28	=28	=28	=28	=28	=28
2.f\	.	.	2d\	.	.	2.b-\	.	.
.	.	.	2c\	.	.	.	.	.
4e\	.	.	.	.	.	4a/	.	.
4d\	.	.	1F	.	.	4g/	.	.
4c\	.	.	.	.	.	4f/	.	.
1c	.	.	.	.	.	1f	.	.
.	.	.	1G	.	.	.	.	.
2B-\	.	.	.	.	.	2e/	.	.
=29	=	=	=29	=29	=29	=29	=29	=29
0c	per,	quiers	0F	per,	quiers	1f	per,	quiers
.	.	.	.	.	.	1r	.	.
1F	ne	vi-	1a	ne	vi-	1ff	ne	vi-
=30	=	=	=30	=30	=30	=30	=30	=30
2G/	vous	-vre heu	2g\	vous	-vre heu-	2ee\	vous	-vre heu-
1B-	.	.	1f	.	.	2.dd\	.	.
.	.	.	.	.	.	4cc\	.	.
2c\	ver-	.	2e\	.	.	2.cc\	.	.
[1F	-ray	-re	1f	ver-	-re	.	.	.
.	.	.	.	.	.	4b-\	.	.
.	.	.	.	.	.	4a/	.	.
.	.	.	.	.	.	4g/	.	.
=31	=	=	=31	=31	=31	=31	=31	=31
0F]	.	.	1a	-ray	ne	2cc\	ver-	-re
.	.	.	.	.	.	2dd\	.	.
.	.	.	2r	.	.	1ff	-ray	ne
.	.	.	2a\	je	de-	.	.	.
1G	je	ne	2g\	.	.	2ee\	je	de-
.	.	.	[2b-\	my-	-my-	2dd\	.	.
=32	=	=	=32	=32	=32	=32	=32	=32
2G/	my-	de-	2b-\]	.	.	1gg	my-	-my-
2c\	.	.	1a	.	.	.	.	.
2d\	.	-my-	.	.	.	1ff	.	.
2B-\	.	.	1g	.	.	.	.	.
2c\	.	.	.	.	.	2ee\	.	.
[2d\	.	.	2f\	.	.	[2dd\	.	.
=33	=	=	=33	=33	=33	=33	=33	=33
2d\]	.	.	2a\	.	.	4dd\]	.	.
.	.	.	.	.	.	4cc\	.	.
2G/	.	.	2g\	.	.	4b-\	.	.
.	.	.	.	.	.	4a/	.	.
2c\	.	.	2e\	.	.	2g/	.	.
2F/	.	.	2f\	.	.	1cc	.	.
1G	.	.	1d	.	.	.	.	.
.	.	.	.	.	.	2bni\	.	.
=34	=	=	=34	=34	=34	=34	=34	=34
0.gl	-e?	-e.	0.cl	-e?	-e.	0.ccl	-e?	-e.
!!LO:LB:i:g=z
=35||!|:	=35||!|:	=35||!|:	=35||!|:	=35||!|:	=35||!|:	=35||!|:	=35||!|:	=35||!|:
*>B	*	*	*>B	*>B	*>B	*>B	*>B	*>B
*clefGv2	*	*	*clefGv2	*	*	*clefG2	*	*
*k[b-]	*	*	*k[]	*	*	*k[]	*	*
*M2/1	*	*	*M2/1	*	*	*M2/1	*	*
*met(C|)	*	*	*met(C|)	*	*	*met(C|)	*	*
!!section: Helas, de vous
!!!OMD: Helas, de vous
0d	He-	Car	0f	He-	Car	0a	He-	Car
=36	=	=	=36	=36	=36	=36	=36	=36
1A	-las,	sans	1e	-las,	sans	1cc	-las,	sans
1A	de	vous	1e	de	vous	1cc	de	vous
=37	=	=	=37	=37	=37	=37	=37	=37
0a	vous	voir,	[0d	vous	voir,	1.dd	vous	voir,
.	.	.	.	.	.	2cc\	.	.
=38	=	=	=38	=38	=38	=38	=38	=38
0f	.	.	1d]	.	.	1a	.	.
.	.	.	1d	bien	en	1r	.	.
=39	=	=	=39	=39	=39	=39	=39	=39
1d	bien	en	1f	plain-	quel-	1dd	bien	en
2A/	plain-	quel-	1e	.	.	1cc	plain-	quel-
2c\	.	.	.	.	.	.	.	.
=40	=	=	=40	=40	=40	=40	=40	=40
1B-	-dre	-que	1f	-dre	-que	1dd	-dre	-que
1G	.	.	1g	.	.	1ee	.	.
=41	=	=	=41	=41	=41	=41	=41	=41
0d	me	part	1a	me	part	1ff	.	.
.	.	.	1f	de-	que	[1dd	me	part
=42	=	=	=42	=42	=42	=42	=42	=42
0A	de-	que	0e	-vroi-	soy-	1dd]	.	.
.	.	.	.	.	.	1cc	de-	que
=43	=	=	=43	=43	=43	=43	=43	=43
0B-	-vroi-	soy-	0d	-e,	-e,	1.dd	-vroi-	soy-
.	.	.	.	.	.	2cc\	.	.
=44	=	=	=44	=44	=44	=44	=44	=44
1c	-e,	-e,	1r	.	.	1a	-e,	-e,
1G	S'il	Tout	1d	S'il	Tout	1b	S'il	Tout
=45	=	=	=45	=45	=45	=45	=45	=45
0c	ne	ce	0A	ne	ce	1cc	.	.
.	.	.	.	.	.	[1a	ne	ce
=46	=	=	=46	=46	=46	=46	=46	=46
0d	vous	que	0B-i	vous	que	1a]	.	.
.	.	.	.	.	.	1g	vous	que
=47	=	=	=47	=47	=47	=47	=47	=47
0e	plaist	voys	1A	.	.	0a	plaist	voys
.	.	.	1A	plaist	voys	.	.	.
=48	=	=	=48	=48	=48	=48	=48	=48
1f	.	.	0d	que	me	2b-i\	que	me
.	.	.	.	.	.	2a/	.	.
1f	que	me	.	.	.	2g/	.	.
.	.	.	.	.	.	2f/	.	.
=49	=	=	=49	=49	=49	=49	=49	=49
1g	bref-	des-	0c	bref-	des-	1e	bref-	des-
[1e	-ve-	-plais	.	.	.	[1a	-ve-	-plaist
=50	=	=	=50	=50	=50	=50	=50	=50
2e\]	.	.	1A	-ve-	-plaist	1a]	.	.
2c\	.	.	.	.	.	.	.	.
1d	.	.	1B-i	.	.	[1g	-ment	et
=51	=	=	=51	=51	=51	=51	=51	=51
1e	-ment	et	1c	-ment	et	1g]	.	.
[1c	vous	en-	1F	vous	en-	[1f	vous	en-
=52	=	=	=52	=52	=52	=52	=52	=52
1c]	.	.	0G	voy-	-noy-	1f]	.	.
1B-	voy-	-noy-	.	.	.	1e	voy-	-noy-
=53	=	=	=53	=53	=53	=53	=53	=53
0c	-e,	-e,	0F	-e,	-e,	1f	-e,	-e,
.	.	.	.	.	.	1r	.	.
=54	=	=	=54	=54	=54	=54	=54	=54
1.f	M'a-	Ne	0r	.	.	1.a	M'a-	Ne
2g\	.	.	.	.	.	2b\	.	.
=55	=	=	=55	=55	=55	=55	=55	=55
0a	-mour,	jus-	1.A	M'a-	Ne	1.cc	-mour,	jus-
.	.	.	2B\	.	.	2dd\	.	.
=56	=	=	=56	=56	=56	=56	=56	=56
1g	.	.	1c	-mour,	jus-	1ee	.	.
1g	par	-qu'a	1c	par	-qu'a-	1ee	par	-qu'a-
=57	=	=	=57	=57	=57	=57	=57	=57
1f	qui	-lors	0d	qui	-lors	1.ff	qui	-lors
1d	.	.	.	.	.	.	.	.
.	.	.	.	.	.	2ee\	.	.
=58	=	=	=58	=58	=58	=58	=58	=58
0A	.	.	1r	.	.	0cc	.	.
.	.	.	1e	d'aul-	je	.	.	.
=59	=	=	=59	=59	=59	=59	=59	=59
0a	d'aul-	je	[0f	.	n'au-	1.dd	d'aul-	je
.	.	.	.	.	.	2cc\	.	.
=60	=	=	=60	=60	=60	=60	=60	=60
1d	.	.	1f]	.	.	1a	.	n'au-
1e	-tre ay-	n'au-	1e	-tre ay-	-ray	1g	-tre ay-	-ray
=61	=	=	=61	=61	=61	=61	=61	=61
1f	-mer	-ray	1d	-mer	souf-	1.b	-mer	souf-
[1e	.	souf-	1c	.	.	.	.	.
.	.	.	.	.	.	4a/	.	.
.	.	.	.	.	.	4b\	.	.
=62	=	=	=62	=62	=62	=62	=62	=62
1e]	.	.	0A	.	.	1.cc	.	.
1c	.	.	.	.	.	.	.	.
.	.	.	.	.	.	2a/	.	.
=63	=	=	=63	=63	=63	=63	=63	=63
1d	n'ay	.	0G	n'ay	.	1b	.	.
1e	.	.	.	.	.	[1dd	n'ay	.
=64	=	=	=64	=64	=64	=64	=64	=64
[0f	.	.	[0d	.	.	2dd\]	.	.
.	.	.	.	.	.	2cc\	.	.
.	.	.	.	.	.	2b\	.	.
.	.	.	.	.	.	2a/	.	.
=65	=	=	=65	=65	=65	=65	=65	=65
1f]	.	.	1d]	.	.	1b	puis-	-fi-
[1e	puis-	-fi-	1c	puis-	-fi-	[1cc	-san-	-san-
=66	=	=	=66	=66	=66	=66	=66	=66
1e]	.	.	0A	-san-	-san-	2cc\]	.	.
.	.	.	.	.	.	2a/	.	.
1c	.	.	.	.	.	[1a	.	.
=67	=	=	=67	=67	=67	=67	=67	=67
0d	-san-	-san-	0B	.	.	1a]	.	.
.	.	.	.	.	.	1g#i	.	.
=68	=	=	=68	=68	=68	=68	=68	=68
0el	-ce.	-ce.	0Al	-ce.	-ce.	0al	-ce.	-ce.
==:|!	=:|!	=:|!	==:|!	==:|!	==:|!	==:|!	==:|!	==:|!
*-	*-	*-	*-	*-	*-	*-	*-	*-
!!!RDF**kern: l=long note in original notation
!!!RDF**kern: i=editorial accidental
!!!RDF**kern: V=start of tuplet marker
!!!RDF**kern: Z=end of tuplet marker
!!!ENC: Chris Gage 06-25-2012
!!!END: 2015/10/29/
!!!EED: Jesse Rodin
!!!EEV: 2015/10/31/
!!!ONB: Translated from MusicXML and edited on 2015/10/31/ by Craig Sapp
!!muse2ps: C^@{COM}^i2I150v100,100,120Q16z18c62l2600
